UI/Misc/SVG/flashlight_outline_24px.svg

<svg width="24" height="24" viewBox="0 0 24 24" fill="none" xmlns="http://www.w3.org/2000/svg">
<path d="M19 2H5V5C5 7.72 6.08 8.08 8 10V20C8 20.5304 8.21071 21.0391 8.58579 21.4142C8.96086 21.7893 9.46957 22 10 22H14C14.5304 22 15.0391 21.7893 15.4142 21.4142C15.7893 21.0391 16 20.5304 16 20V10C17.92 8.08 19 7.72 19 5V2ZM7 5V4H17V5H7ZM10 20V9.17L9.41 8.59C9.03 8.2 8.68 7.88 8.36 7.59C8.04 7.3 7.91 7.17 7.75 7H16.25C16.09 7.17 15.89 7.35 15.64 7.58C15.39 7.81 14.97 8.2 14.59 8.58L14 9.17V20H10ZM13 12H11V15H13V12Z" fill="#0F1621"/>
</svg>

<svg xmlns="http://www.w3.org/2000/svg" width="24" height="24" viewBox="0 0 24 24"><rect width="24" height="24" style="fill:none"/><path d="M19,2H5V5c0,2.72,1.08,3.08,3,5V20a2,2,0,0,0,2,2h4a2,2,0,0,0,2-2V10c1.92-1.92,3-2.28,3-5V2ZM7,5V4H17V5Zm3,15V9.17l-.59-.58c-.38-.39-.73-.71-1.05-1S7.91,7.17,7.75,7h8.5c-.16.17-.36.35-.61.58s-.67.62-1.05,1L14,9.17V20Zm3-8H11v3h2V12Z"/></svg>
